X:1
T:Seeking, Calling, Knocking
T:Seeking, Calling, Knocking
T:Arthur J. Smith
T:Charlotte Murray, 1890
T:Public Domain Courtesy of the Cyber Hymnal™
T:Public Domain Courtesy of the Cyber Hymnal™
C:Arthur J. Smith
Z:Public Domain
Z:Courtesy of the Cyber Hymnal™
%%score ( 1 2 ) ( 3 4 )
L:1/8
Q:1/4=105
M:4/4
K:Bb
V:1 treble 
V:2 treble 
V:3 bass 
V:4 bass 
V:1
 [DF]2 [DF][DF] [EG]2 [DF][DF] | [Fd]2 [Fd][Ec] [DB]2 [DF]2 | [EG]2 [EG][EA] [EB]2 [EB][Ec] | %3
w: 1.~Je- sus is wait- ing to|wel- come the wear- y,|Worn with the world’s fruit- less|
w: 2.~Je- sus is wait- ing, He|stand- eth and knock- eth,|Call- ing in love un- to|
w: 3.~“Will you not come? you need|no pre- pa- ra- tion;|Stay not to think, but come|
w: 4.~“O, I am yearn- ing to|see you un- bur- dened;|Death did I suf- fer that|
 [=Ed]2 [Ec][EB] c4 | [DF]2 [DF][DF] [EG]2 [DF][DF] | [Fd]2 [Fd][Ec] [DB]2 [DF]2 | %6
w: striv- ing for peace;|Tired with a night- watch that|know- eth no morn- ing,|
w: each one op- pressed—|“Come un- to Me, sin- ner,|wear- y and la- den;|
w: just as you are.|Bring no- thing with you, for|love giv- eth free- ly,|
w: you might be free.|Will you not come, and by|life con- se- cra- tion,|
 [EG]2 [EG][EA] [EB]2 [EB][=Ec] | [Fd]2 [Ec][Ec] [DB]4 ||"^Refrain" [Ge]2 [Ge][Ge] [Ge]2 [EG]2 | %9
w: Sick with a heart- ache that|earth can- not ease.||
w: I will re- ceive you and|give you My rest.|Je- sus is seek- ing;|
w: Peace— per- fect peace— that no|sor- row can mar.||
w: Try to win o- thers, and|bring them to Me?”||
 [Fd]2 [Fd][Fd] [Fd]2 [DF]2 | [Fc]2 [Fc][Fd] [Fe]2 [Fd][Fc] | [Fd]6 z2 | %12
w: |||
w: Je- sus is call- ing;|Will you not come to Him|now?|
w: |||
w: |||
 [Ge]2 [Ge][Ge] [Ge]2 [EG]2 | [Fd]2 [Fd][Fd] [Fd]2 [DF]2 | [Ec]2 [Fd][Ge] [Fd]2 [Ec]2 | B6 z2 |] %16
w: ||||
w: Je- sus is knock- ing;|Je- sus is wait- ing,|Wait- ing to save you|now.|
w: ||||
w: ||||
V:2
 x8 | x8 | x8 | x4 (F2 _E2) | x8 | x8 | x8 | x8 || x8 | x8 | x8 | x8 | x8 | x8 | x8 | %15
 (D2 EE D2) x2 |] %16
V:3
 [B,,B,]2 [B,,B,][B,,B,] [B,,B,]2 [B,,B,][B,,B,] | [B,,B,]2 [B,,B,][B,,B,] [B,,F,]2 [B,,B,]2 | %2
w: ~ ~ ~~ ~ ~ ~|~ ~ ~ ~ ~|
 [E,B,]2 [E,B,][E,A,] [E,G,]2 [E,G,][E,G,] | [C,G,]2 [C,G,][C,C] [F,A,]4 | %4
w: ~ ~ ~ ~ ~ ~|~ ~ ~ ~|
 [B,,B,]2 [B,,B,][B,,B,] [B,,B,]2 [B,,B,][B,,B,] | [B,,B,]2 [B,,B,][B,,B,] [B,,B,]2 [B,,B,]2 | %6
w: ~ ~ ~ ~ ~ ~|~ ~ ~ ~ ~|
 [E,B,]2 [E,B,][E,A,] [E,G,]2 [E,G,][G,B,] | [F,B,]2 [F,A,][F,A,] [B,,B,]4 || %8
w: ~ ~ ~ ~ ~ ~|~ ~ ~ ~|
 [E,B,]2 [E,B,][E,B,] [E,B,][E,B,][E,B,][E,B,] | %9
w: ~ ~ ~ seek- ing, seek- ing,|
 [B,,B,]2 [B,,B,][B,,B,] [B,,B,][B,,B,][B,,B,][B,,B,] | [F,A,]2 [F,A,][F,B,] [F,C]2 [F,B,][F,A,] | %11
w: ~ ~ ~ call- ing, call- ing,|~ ~ ~ ~ ~ ~|
 B,6 z2 | [E,B,]2 [E,B,][E,B,] [E,B,][E,B,][E,B,][E,B,] | %13
w: ~|to Him now, ~ ~ ~ knock-|
 [B,,B,]2 [B,,B,][B,,B,] [B,,B,][B,,B,][B,,B,][B,,B,] | [E,G,]2 [D,G,][C,G,] [F,B,]2 [F,A,]2 | %15
w: ing, knock- ing, ~ ~ ~ wait-|ing, wait- ing, * *|
 (B,2 G,G, F,2) z2 |] %16
w: |
V:4
 x8 | x8 | x8 | x8 | x8 | x8 | x8 | x8 || x8 | x8 | x8 | B,2 F,D, B,,2 x2 | x8 | x8 | x8 | %15
 B,,6 x2 |] %16

